packages/vapor/resources/icons/svg/arrow-down-in-circle.svg

<svg viewBox="0 0 500 500" xmlns="http://www.w3.org/2000/svg"><path d="m250 0c138 0 250 112 250 250s-112 250-250 250-250-112-250-250 112-250 250-250zm-19.796392 317.953746v-186.022326c.000003-9.46571 10.148196-18.93142 20.296392-18.93142s20.296392 7.572568 20.296392 18.93142v186.022326l30.444587-28.39713c14.207475-13.251994 30.444588 0 30.444588 0s14.207474 13.251994 0 26.503988l-66.978093 66.25997c-8.118556 7.572568-20.296392 7.572568-28.414948 0l-66.978093-64.366828c-14.207474-13.251994 0-28.39713 0-28.39713s16.237113-13.251994 30.444588 0zm19.796392-267.953746c-110.4 0-200 89.6-200 200s89.6 200 200 200 200-89.6 200-200-89.6-200-200-200z"/></svg>

<svg xmlns="http://www.w3.org/2000/svg" viewBox="0 0 500 500">
    <path d="M250,0 C388,0 500,112 500,250 C500,388 388,500 250,500 C112,500 0,388 0,250 C0,112 112,0 250,0 Z M230.203608,317.953746 L230.203608,131.93142 C230.203611,122.46571 240.351804,113 250.5,113 C260.648196,113 270.796392,120.572568 270.796392,131.93142 L270.796392,317.953746 L301.240979,289.556616 C315.448454,276.304622 331.685567,289.556616 331.685567,289.556616 C331.685567,289.556616 345.893041,302.80861 331.685567,316.060604 L264.707474,382.320574 C256.588918,389.893142 244.411082,389.893142 236.292526,382.320574 L169.314433,317.953746 C155.106959,304.701752 169.314433,289.556616 169.314433,289.556616 C169.314433,289.556616 185.551546,276.304622 199.759021,289.556616 L230.203608,317.953746 Z M250,50 C139.6,50 50,139.6 50,250 C50,360.4 139.6,450 250,450 C360.4,450 450,360.4 450,250 C450,139.6 360.4,50 250,50 Z" fill="#000000" fill-rule="nonzero"></path>
</svg>
